assets/icons/buyerIcon.svg

<svg width="44" height="44" viewBox="0 0 44 44" fill="none" xmlns="http://www.w3.org/2000/svg">
<rect width="44" height="44" rx="22" fill="#CEE7AF"/>
<path fill-rule="evenodd" clip-rule="evenodd" d="M17.3162 25.9322C17.143 26.0267 16.9803 26.1475 16.8385 26.2892C16.4448 26.683 16.2244 27.2185 16.2244 27.775C16.2244 28.9352 17.164 29.875 18.3241 29.875H18.5026C18.3871 30.1112 18.3241 30.379 18.3241 30.6625C18.3241 31.6757 19.1482 32.5 20.1613 32.5C21.1744 32.5 21.9986 31.6757 21.9986 30.6625C21.9986 30.379 21.9356 30.1112 21.8201 29.875H25.3266C25.2111 30.1112 25.1482 30.379 25.1482 30.6625C25.1482 31.6757 25.9723 32.5 26.9854 32.5C27.9985 32.5 28.8227 31.6757 28.8227 30.6625C28.8227 30.379 28.7597 30.1112 28.6442 29.875H29.3476C29.6363 29.875 29.8725 29.6388 29.8725 29.35C29.8725 29.0612 29.6363 28.825 29.3476 28.825H18.3241C17.7467 28.825 17.2742 28.3525 17.2742 27.775C17.2742 27.4967 17.3845 27.229 17.5839 27.0347C17.7782 26.8352 18.0459 26.725 18.3241 26.725H27.7413C28.6127 26.725 29.3896 26.1842 29.694 25.3705C30.5287 23.134 32.4657 18.5035 32.4657 18.5035C32.5287 18.3407 32.5024 18.1622 32.4079 18.0205C32.3134 17.8787 32.1507 17.7947 31.9775 17.7947C31.9775 17.7947 15.7257 17.7947 15.7047 17.7947L14.9278 14.9388C14.6863 14.1407 13.9462 13.5947 13.1115 13.5947H12.0249C11.7362 13.5947 11.5 13.831 11.5 14.1197C11.5 14.4085 11.7362 14.6447 12.0249 14.6447H13.1063C13.479 14.6447 13.8097 14.8915 13.9199 15.2485L16.9593 25.2445C17.038 25.4965 17.1587 25.7275 17.3162 25.927V25.9322ZM26.0878 19.0022L20.8385 24.2522C20.6338 24.457 20.6338 24.7877 20.8385 24.9977C21.0432 25.2025 21.3739 25.2025 21.5839 24.9977L26.8332 19.7477C27.0379 19.543 27.0379 19.2122 26.8332 19.0022C26.6285 18.7975 26.2978 18.7975 26.0878 19.0022ZM28.45 20.5773L24.7755 24.2522C24.5707 24.457 24.5707 24.7877 24.7755 24.9977C24.9802 25.2025 25.3109 25.2025 25.5209 24.9977L29.1954 21.3227C29.4001 21.118 29.4001 20.7873 29.1954 20.5773C28.9906 20.3725 28.6599 20.3725 28.45 20.5773ZM22.1508 19.0022L18.4763 22.6772C18.2716 22.882 18.2716 23.2127 18.4763 23.4227C18.681 23.6275 19.0117 23.6275 19.2217 23.4227L22.8962 19.7477C23.1009 19.543 23.1009 19.2122 22.8962 19.0022C22.6915 18.7975 22.3608 18.7975 22.1508 19.0022ZM15.7414 16.75C16.0721 16.75 18.2453 16.75 20.9015 16.75C20.8332 15.7262 20.6495 14.1722 20.1823 13.0697C19.7781 12.1195 19.143 11.5 18.3188 11.5C17.4947 11.5 16.8595 12.1142 16.4553 13.0697C15.9881 14.1722 15.8044 15.7315 15.7362 16.75H15.7414ZM21.0852 16.75H26.5865C26.4237 16.1882 26.1455 15.7945 25.8778 15.406C25.6363 15.0542 25.4106 14.7077 25.3844 14.125C25.3686 14.125 25.3529 14.125 25.3371 14.125H22.3345C22.3345 14.125 22.303 14.125 22.2873 14.125C22.2663 14.7025 22.0353 15.0542 21.7939 15.406C21.5261 15.7945 21.2427 16.1882 21.0852 16.75ZM26.7754 16.75H31.9197C31.9512 16.582 31.9722 16.4088 31.9722 16.2302C31.9722 15.0017 31.1271 13.9727 29.9932 13.684C30.114 13.4267 30.3292 13.201 30.6652 13.0067C30.9171 12.8597 31.0011 12.5395 30.8541 12.2875C30.7072 12.0355 30.3869 11.9515 30.135 12.0985C29.8883 12.2455 29.6783 12.403 29.5103 12.5657C29.4841 12.5342 29.4631 12.508 29.4368 12.4765C29.0904 12.1037 28.5339 11.9042 27.6993 12.0302C27.4946 12.0617 27.3266 12.2088 27.2741 12.403C27.0746 13.096 27.1639 13.5895 27.3949 13.936C27.4683 14.041 27.5523 14.1355 27.6573 14.2195C27.0904 14.7025 26.7282 15.4217 26.7282 16.225C26.7282 16.4035 26.7439 16.5767 26.7807 16.7447L26.7754 16.75ZM18.0354 16.2302L19.0852 15.7052C19.3424 15.574 19.4474 15.259 19.3214 15.0017C19.1902 14.7445 18.8753 14.6395 18.618 14.7655L17.5682 15.2905C17.311 15.4217 17.206 15.7368 17.332 15.994C17.4632 16.2512 17.7782 16.3562 18.0354 16.2302ZM18.2978 14.3928L18.8228 14.1302C19.08 13.999 19.185 13.684 19.059 13.4267C18.9277 13.1695 18.6128 13.0645 18.3556 13.1905L17.8306 13.453C17.5734 13.5842 17.4684 13.8992 17.5944 14.1565C17.7257 14.4137 18.0406 14.5187 18.2978 14.3928ZM25.6731 12.025C25.6731 11.7362 25.4369 11.5 25.1482 11.5H22.5235C22.2348 11.5 21.9986 11.7362 21.9986 12.025V12.55C21.9986 12.8388 22.2348 13.075 22.5235 13.075H25.1482C25.4369 13.075 25.6731 12.8388 25.6731 12.55V12.025Z" fill="#56862A"/>
</svg>

<svg xmlns="http://www.w3.org/2000/svg" width="44" height="44" fill="none" viewBox="0 0 44 44"><rect width="44" height="44" fill="#cee7af" rx="22"/><path fill="#56862a" fill-rule="evenodd" d="M17.316 25.932a2.102 2.102 0 0 0 1.008 3.943h.179a1.84 1.84 0 0 0 1.659 2.625 1.84 1.84 0 0 0 1.658-2.625h3.507a1.84 1.84 0 0 0 1.659 2.625 1.84 1.84 0 0 0 1.658-2.625h.704a.526.526 0 0 0 .524-.525.526.526 0 0 0-.524-.525H18.324c-.577 0-1.05-.473-1.05-1.05 0-.278.11-.546.31-.74.194-.2.462-.31.74-.31h9.417c.872 0 1.649-.54 1.953-1.355.835-2.236 2.772-6.867 2.772-6.867a.53.53 0 0 0-.058-.483.52.52 0 0 0-.43-.225H15.705l-.777-2.856a1.9 1.9 0 0 0-1.817-1.344h-1.086a.527.527 0 0 0-.525.525c0 .289.236.525.525.525h1.081c.373 0 .704.247.814.604l3.04 9.995q.119.381.356.683zm8.772-6.93-5.25 5.25a.53.53 0 0 0 0 .746.53.53 0 0 0 .746 0l5.25-5.25a.53.53 0 0 0 0-.746.53.53 0 0 0-.746 0m2.362 1.575-3.674 3.675a.53.53 0 0 0 0 .746.53.53 0 0 0 .745 0l3.674-3.675a.53.53 0 0 0 0-.746.53.53 0 0 0-.745 0m-6.3-1.575-3.674 3.675a.53.53 0 0 0 0 .746.53.53 0 0 0 .746 0l3.674-3.675a.53.53 0 0 0 0-.746.53.53 0 0 0-.745 0m-6.409-2.252h5.16c-.068-1.024-.252-2.578-.719-3.68-.404-.95-1.039-1.57-1.863-1.57s-1.46.614-1.864 1.57c-.467 1.102-.65 2.662-.719 3.68zm5.344 0h5.502c-.163-.562-.442-.956-.71-1.344-.24-.352-.466-.698-.493-1.281h-3.097c-.02.578-.252.93-.493 1.281-.268.388-.551.782-.709 1.344m5.69 0h5.145a2.63 2.63 0 0 0-1.926-3.066c.12-.257.335-.483.671-.677a.524.524 0 0 0 .19-.72.524.524 0 0 0-.72-.189 3.4 3.4 0 0 0-.625.468l-.073-.09c-.347-.372-.903-.572-1.738-.446a.52.52 0 0 0-.425.373c-.2.693-.11 1.186.12 1.533.074.105.158.2.263.284a2.63 2.63 0 0 0-.876 2.525zm-8.74-.52 1.05-.525a.53.53 0 0 0 .236-.703.53.53 0 0 0-.703-.237l-1.05.525a.53.53 0 0 0-.236.704.53.53 0 0 0 .703.236m.263-1.837.525-.263a.53.53 0 0 0 .236-.703.53.53 0 0 0-.703-.236l-.525.262a.53.53 0 0 0-.237.704.53.53 0 0 0 .704.236m7.375-2.368a.526.526 0 0 0-.525-.525h-2.625a.526.526 0 0 0-.524.525v.525c0 .289.236.525.524.525h2.625a.526.526 0 0 0 .525-.525z" clip-rule="evenodd"/></svg>
